common/src/main/resources/icons/plugins/bigdata/toolWindowAlibabaOSS.svg

<!--
  - The MIT License (MIT)
  -
  - Copyright (c) 2015-2022 Elior "Mallowigi" Boukhobza
  -
  - Permission is hereby granted, free of charge, to any person obtaining a copy
  - of this software and associated documentation files (the "Software"), to deal
  - in the Software without restriction, including without limitation the rights
  - to use, copy, modify, merge, publish, distribute, sublicense, and/or sell
  - copies of the Software, and to permit persons to whom the Software is
  - furnished to do so, subject to the following conditions:
  -
  - The above copyright notice and this permission notice shall be included in all
  - copies or substantial portions of the Software.
  -
  - THE SOFTWARE IS PROVIDED "AS IS", WITHOUT WARRANTY OF ANY KIND, EXPRESS OR
  - IMPLIED, INCLUDING BUT NOT LIMITED TO THE WARRANTIES OF MERCHANTABILITY,
  - FITNESS FOR A PARTICULAR PURPOSE AND NONINFRINGEMENT. IN NO EVENT SHALL THE
  - AUTHORS OR COPYRIGHT HOLDERS BE LIABLE FOR ANY CLAIM, DAMAGES OR OTHER
  - LIABILITY, WHETHER IN AN ACTION OF CONTRACT, TORT OR OTHERWISE, ARISING FROM,
  - OUT OF OR IN CONNECTION WITH THE SOFTWARE OR THE USE OR OTHER DEALINGS IN THE
  - SOFTWARE.
  -
  -
  -->

<svg width="13px" height="13px" viewBox="0 0 13 13" fill="none" xmlns="http://www.w3.org/2000/svg">
  <path fill-rule="evenodd" clip-rule="evenodd"
        d="M12 6.25C12 8.59721 10.1058 10.5 7.76923 10.5C7.15515 10.5 6.57163 10.3686 6.04502 10.1322L6.07692 10.1077C6.36982 9.85705 6.95562 9.13346 6.95562 8.24423C7.12896 8.24423 7.43694 8.25389 7.68747 8.26357C7.83105 8.26911 7.93285 8.12287 7.87736 7.98972L6.95161 5.76816C6.89457 5.63128 6.71275 5.60513 6.61976 5.72042L4.98533 7.7471C4.88462 7.87198 4.96796 8.05886 5.12777 8.0665L6.10947 8.11346C6.03429 8.61944 5.72259 9.48862 5.02706 10.0094C4.61795 10.2783 4.12892 10.4346 3.60355 10.4346C2.16565 10.4346 1 9.26367 1 7.81923C1 6.37479 2.16565 5.20385 3.60355 5.20385C3.6249 5.20385 3.64618 5.2041 3.6674 5.20462C4.13111 3.36288 5.79173 2 7.76923 2C10.1058 2 12 3.90279 12 6.25Z"
        fill="#FF8A65" />
</svg>

<svg xmlns="http://www.w3.org/2000/svg" width="13" height="13" fill="none"><path fill="#FF8A65" fill-rule="evenodd" d="M12 6.25c0 2.347-1.894 4.25-4.23 4.25a4.2 4.2 0 0 1-1.725-.368l.032-.024c.293-.251.879-.975.879-1.864.173 0 .48.01.731.02a.198.198 0 0 0 .19-.274l-.925-2.222a.195.195 0 0 0-.332-.048L4.985 7.747a.196.196 0 0 0 .143.32l.981.046c-.075.506-.386 1.376-1.082 1.896-.409.27-.898.426-1.423.426A2.61 2.61 0 0 1 1 7.819a2.61 2.61 0 0 1 2.667-2.614A4.236 4.236 0 0 1 7.77 2C10.106 2 12 3.903 12 6.25" clip-rule="evenodd"/></svg>
